style-img/Slide 16_9 - 22.svg

<svg width="1440" height="810" fill="none" xmlns="http://www.w3.org/2000/svg"><path fill="#E5D2E0" d="M99 164h435v34H99z"/><path d="M128.372 136.06v48.464h5.564V136.06h-5.564Zm-6.604 17.108v5.824h17.16v-5.824h-17.16Zm6.552 3.12c-1.3 5.148-4.368 12.376-7.384 16.224.936 1.768 2.34 4.576 2.86 6.5 3.38-4.992 6.396-14.092 8.008-21.008l-3.484-1.716Zm5.72 3.12-2.86 2.392c1.612 2.652 4.628 8.476 5.772 11.544l3.952-4.784c-.988-1.56-5.512-7.748-6.864-9.152Zm-12.324-19.292c1.248 3.692 2.236 8.632 2.392 11.804l4.316-1.04c-.26-3.224-1.248-8.06-2.652-11.804l-4.056 1.04Zm14.456-1.3c-.52 3.64-1.664 8.736-2.652 11.96l3.692 1.04c1.196-3.016 2.652-7.904 3.9-11.96l-4.94-1.04Zm5.564.832v4.472h27.092v-4.472h-27.092Zm1.248 6.5v4.212h24.752v-4.212h-24.752Zm-2.704 6.448v4.524h29.9v-4.524h-29.9Zm11.544-16.692v19.24h5.928v-19.24h-5.928Zm-8.84 23.348v25.48h5.824v-21.06h13.936v-4.42h-19.76Zm18.356 0v19.76c0 .572-.208.78-.884.78-.624 0-2.808 0-4.732-.104.676 1.404 1.352 3.484 1.612 4.992 3.328 0 5.772-.052 7.54-.832 1.82-.832 2.288-2.184 2.288-4.784v-19.812h-5.824Zm-15.08 6.916v4.056h17.108v-4.056H146.26Zm0 6.552v4.056h17.108v-4.056H146.26Zm38.844-16.588h-11.232v5.772h5.408v13.364h5.824v-19.136Zm0 16.744h-5.2c-2.184 1.924-4.68 3.9-6.76 5.356l2.964 5.98c2.444-2.34 4.524-4.316 6.5-6.396 3.12 4.056 7.384 5.616 13.728 5.876 6.5.26 18.044.156 24.7-.156.26-1.716 1.196-4.472 1.872-5.824-7.384.572-20.176.728-26.624.468-5.356-.26-9.152-1.768-11.18-5.304Zm-11.544-32.708c2.652 2.652 5.772 6.448 6.968 8.944l5.304-3.484c-1.404-2.548-4.628-6.084-7.384-8.58l-4.888 3.12Zm14.716 16.952v4.524h31.876v-4.524h-31.876Zm-1.56 8.008v4.628h35.048v-4.628h-35.048Zm8.476-10.764v13h5.876v-13h-5.876Zm11.908 0v13h5.928v-13H207.1Zm-17.42-10.816v3.952h12.844v-10.036h-15.132v3.9h9.88v2.184h-7.592Zm-1.56 0v5.096c0 4.16 1.3 5.356 5.928 5.356h5.46c3.172 0 4.576-.988 5.096-4.524-1.404-.26-3.38-.936-4.316-1.612-.208 1.716-.416 2.028-1.456 2.028h-4.004c-1.352 0-1.56-.208-1.56-1.3v-5.044h-5.148Zm18.668 0v3.952h12.948v-10.036h-15.444v3.9h10.14v2.184h-7.644Zm-1.56 0v5.044c0 4.212 1.3 5.408 5.98 5.408h5.616c3.224 0 4.628-.988 5.148-4.576-1.404-.312-3.38-.936-4.316-1.612-.208 1.768-.416 2.08-1.508 2.08h-4.16c-1.352 0-1.612-.208-1.612-1.3v-5.044h-5.148Zm.988 28.392c3.432 1.768 7.124 4.108 9.048 5.772l6.448-2.34c-2.6-1.768-7.176-4.264-10.92-5.98l-4.576 2.548Zm-9.1-2.548c-2.236 1.768-6.084 3.432-9.724 4.524 1.3.832 3.536 2.704 4.524 3.744 3.588-1.456 7.956-3.848 10.66-6.344l-5.46-1.924Zm52.676-27.612c4.42 6.188 13.156 13.416 21.164 17.836 1.144-1.924 2.548-4.004 4.108-5.616-8.268-3.536-16.744-10.348-22.308-18.356h-6.5c-3.848 6.448-12.272 14.456-21.216 18.98 1.352 1.3 3.12 3.588 3.952 5.044 8.528-4.732 16.484-11.752 20.8-17.888Zm-17.68 24.388v5.408h35.568v-5.408h-35.568Zm2.652-11.492v5.46h30.524v-5.46h-30.524Zm-6.812 23.192v5.564h44.408v-5.564h-44.408Zm18.564-20.748v23.868h6.604V157.12h-6.604Zm31.46-17.316v5.772H295.5v-5.772h-17.524Zm16.952 4.784v5.72h31.616v-5.72h-31.616Zm-16.536 9.724v5.772h16.536v-5.772h-16.536Zm-1.404 18.148 1.612 5.876a602.651 602.651 0 0 0 17.68-5.72l-.832-5.252c-6.708 1.924-13.832 3.952-18.46 5.096Zm30.264-36.66v41.808c0 .832-.312 1.092-1.092 1.092-.832 0-3.276.052-5.824-.052.884 1.612 1.924 4.316 2.132 5.98 3.9 0 6.552-.208 8.372-1.248 1.82-1.04 2.444-2.704 2.444-5.772V135.8h-6.032Zm-15.756 37.856 3.172 5.564c3.64-2.288 8.06-5.252 11.96-8.06l-1.872-5.148c-4.836 2.912-9.932 5.98-13.26 7.644Zm3.9-18.876c1.976 2.912 4.056 6.864 4.836 9.36l5.096-2.392c-.832-2.548-3.12-6.344-5.096-9.1l-4.836 2.132Zm25.532-2.704c-1.456 2.964-4.004 6.916-5.98 9.36l4.42 2.496c2.08-2.288 4.68-5.772 7.02-8.996l-5.46-2.86Zm-5.72-12.792c2.392 1.664 5.356 4.108 6.76 5.824l3.588-3.588c-1.456-1.664-4.524-4.004-6.968-5.46l-3.38 3.224Zm-31.408 2.912v31.2l6.032-.936v-30.264H283.8Zm29.276 8.736-5.148.936c2.288 13.26 5.98 21.528 15.652 28.86.728-1.664 2.392-3.64 3.848-4.784-8.788-5.98-12.324-13.052-14.352-25.012Zm43.362 15.256v5.738h-26.635l-.356-4.444 15.412-24.451h5.815l-6.297 10.537-7.668 12.62h19.729Zm-4.19-23.157V180h-7.312v-36.969h7.312Zm8.523 6.809v6.448h46.28v-6.448h-46.28Zm26.676 2.6-6.292 1.456c3.952 14.3 10.452 25.064 22.36 30.628 1.04-1.82 3.12-4.524 4.68-5.928-11.024-4.368-17.628-14.248-20.748-26.156Zm-7.176-16.588c-.156 14.092.78 33.852-20.54 43.368 1.82 1.352 3.744 3.588 4.732 5.304 22.308-10.764 22.412-32.812 22.672-48.672h-6.864Zm46.384 8.008h18.304v7.02h-18.304v-7.02Zm-6.032-5.928v18.876h30.732v-18.876h-30.732Zm-7.124 23.244v23.504h5.876v-17.576h7.748v17.264h6.24v-23.192h-19.864Zm24.284 0v23.504h5.98v-17.576h8.32v17.316h6.292v-23.244h-20.592ZM416.099 176.1v5.98h13.624v-5.98h-13.624Zm24.544 0v5.98h14.56v-5.98h-14.56Zm42.276-6.916v5.252h28.964v-5.252h-28.964Zm16.276-6.552v22.1h5.876v-22.1h-5.876Zm-4.68-26.884c-.468 2.08-1.508 4.888-2.444 6.968l4.992 1.3a114.93 114.93 0 0 0 4.368-7.072l-6.916-1.196Zm.416 7.748v8.632c0 4.68-1.3 10.712-10.608 14.404 1.144.78 3.068 2.444 3.952 3.432 10.244-4.212 11.908-11.596 11.908-17.68v-8.788h-5.252Zm-26 6.032v5.304h14.82v-5.304h-14.82Zm6.084-13.624V152.7h5.408v-16.796h-5.408Zm-5.772 24.908v5.252h6.76v18.668h5.512v-23.92h-12.272Zm-2.912-23.608v19.448c0 7.28-.416 18.772-3.328 26.312 1.508.416 4.004 1.248 5.2 1.872 2.912-8.112 3.484-20.02 3.484-28.184v-19.448h-5.356Zm23.868 16.068h14.664v3.588h-14.664v-3.588Zm0-7.904h14.664v3.536h-14.664v-3.536Zm-5.512-4.68v20.8h25.896v-20.8h-25.896Z" fill="#424242"/></svg>

<svg width="1440" height="810" viewBox="0 0 1440 810" fill="none" xmlns="http://www.w3.org/2000/svg">
<rect x="99" y="164" width="435" height="34" fill="#E5D2E0"/>
<path d="M128.372 136.06V184.524H133.936V136.06H128.372ZM121.768 153.168V158.992H138.928V153.168H121.768ZM128.32 156.288C127.02 161.436 123.952 168.664 120.936 172.512C121.872 174.28 123.276 177.088 123.796 179.012C127.176 174.02 130.192 164.92 131.804 158.004L128.32 156.288ZM134.04 159.408L131.18 161.8C132.792 164.452 135.808 170.276 136.952 173.344L140.904 168.56C139.916 167 135.392 160.812 134.04 159.408ZM121.716 140.116C122.964 143.808 123.952 148.748 124.108 151.92L128.424 150.88C128.164 147.656 127.176 142.82 125.772 139.076L121.716 140.116ZM136.172 138.816C135.652 142.456 134.508 147.552 133.52 150.776L137.212 151.816C138.408 148.8 139.864 143.912 141.112 139.856L136.172 138.816ZM141.736 139.648V144.12H168.828V139.648H141.736ZM142.984 146.148V150.36H167.736V146.148H142.984ZM140.28 152.596V157.12H170.18V152.596H140.28ZM151.824 135.904V155.144H157.752V135.904H151.824ZM142.984 159.252V184.732H148.808V163.672H162.744V159.252H142.984ZM161.34 159.252V179.012C161.34 179.584 161.132 179.792 160.456 179.792C159.832 179.792 157.648 179.792 155.724 179.688C156.4 181.092 157.076 183.172 157.336 184.68C160.664 184.68 163.108 184.628 164.876 183.848C166.696 183.016 167.164 181.664 167.164 179.064V159.252H161.34ZM146.26 166.168V170.224H163.368V166.168H146.26ZM146.26 172.72V176.776H163.368V172.72H146.26ZM185.104 156.132H173.872V161.904H179.28V175.268H185.104V156.132ZM185.104 172.876H179.904C177.72 174.8 175.224 176.776 173.144 178.232L176.108 184.212C178.552 181.872 180.632 179.896 182.608 177.816C185.728 181.872 189.992 183.432 196.336 183.692C202.836 183.952 214.38 183.848 221.036 183.536C221.296 181.82 222.232 179.064 222.908 177.712C215.524 178.284 202.732 178.44 196.284 178.18C190.928 177.92 187.132 176.412 185.104 172.876ZM173.56 140.168C176.212 142.82 179.332 146.616 180.528 149.112L185.832 145.628C184.428 143.08 181.204 139.544 178.448 137.048L173.56 140.168ZM188.276 157.12V161.644H220.152V157.12H188.276ZM186.716 165.128V169.756H221.764V165.128H186.716ZM195.192 154.364V167.364H201.068V154.364H195.192ZM207.1 154.364V167.364H213.028V154.364H207.1ZM189.68 143.548V147.5H202.524V137.464H187.392V141.364H197.272V143.548H189.68ZM188.12 143.548V148.644C188.12 152.804 189.42 154 194.048 154C195.036 154 198.52 154 199.508 154C202.68 154 204.084 153.012 204.604 149.476C203.2 149.216 201.224 148.54 200.288 147.864C200.08 149.58 199.872 149.892 198.832 149.892C198.052 149.892 195.4 149.892 194.828 149.892C193.476 149.892 193.268 149.684 193.268 148.592V143.548H188.12ZM206.788 143.548V147.5H219.736V137.464H204.292V141.364H214.432V143.548H206.788ZM205.228 143.548V148.592C205.228 152.804 206.528 154 211.208 154C212.196 154 215.836 154 216.824 154C220.048 154 221.452 153.012 221.972 149.424C220.568 149.112 218.592 148.488 217.656 147.812C217.448 149.58 217.24 149.892 216.148 149.892C215.368 149.892 212.612 149.892 211.988 149.892C210.636 149.892 210.376 149.684 210.376 148.592V143.548H205.228ZM206.216 171.94C209.648 173.708 213.34 176.048 215.264 177.712L221.712 175.372C219.112 173.604 214.536 171.108 210.792 169.392L206.216 171.94ZM197.116 169.392C194.88 171.16 191.032 172.824 187.392 173.916C188.692 174.748 190.928 176.62 191.916 177.66C195.504 176.204 199.872 173.812 202.576 171.316L197.116 169.392ZM249.792 141.78C254.212 147.968 262.948 155.196 270.956 159.616C272.1 157.692 273.504 155.612 275.064 154C266.796 150.464 258.32 143.652 252.756 135.644H246.256C242.408 142.092 233.984 150.1 225.04 154.624C226.392 155.924 228.16 158.212 228.992 159.668C237.52 154.936 245.476 147.916 249.792 141.78ZM232.112 166.168V171.576H267.68V166.168H232.112ZM234.764 154.676V160.136H265.288V154.676H234.764ZM227.952 177.868V183.432H272.36V177.868H227.952ZM246.516 157.12V180.988H253.12V157.12H246.516ZM277.976 139.804V145.576H295.5V139.804H277.976ZM294.928 144.588V150.308H326.544V144.588H294.928ZM278.392 154.312V160.084H294.928V154.312H278.392ZM276.988 172.46L278.6 178.336C283.696 176.776 290.196 174.696 296.28 172.616L295.448 167.364C288.74 169.288 281.616 171.316 276.988 172.46ZM307.252 135.8V177.608C307.252 178.44 306.94 178.7 306.16 178.7C305.328 178.7 302.884 178.752 300.336 178.648C301.22 180.26 302.26 182.964 302.468 184.628C306.368 184.628 309.02 184.42 310.84 183.38C312.66 182.34 313.284 180.676 313.284 177.608V135.8H307.252ZM291.496 173.656L294.668 179.22C298.308 176.932 302.728 173.968 306.628 171.16L304.756 166.012C299.92 168.924 294.824 171.992 291.496 173.656ZM295.396 154.78C297.372 157.692 299.452 161.644 300.232 164.14L305.328 161.748C304.496 159.2 302.208 155.404 300.232 152.648L295.396 154.78ZM320.928 152.076C319.472 155.04 316.924 158.992 314.948 161.436L319.368 163.932C321.448 161.644 324.048 158.16 326.388 154.936L320.928 152.076ZM315.208 139.284C317.6 140.948 320.564 143.392 321.968 145.108L325.556 141.52C324.1 139.856 321.032 137.516 318.588 136.06L315.208 139.284ZM283.8 142.196V173.396L289.832 172.46V142.196H283.8ZM313.076 150.932L307.928 151.868C310.216 165.128 313.908 173.396 323.58 180.728C324.308 179.064 325.972 177.088 327.428 175.944C318.64 169.964 315.104 162.892 313.076 150.932ZM356.438 166.188V171.926H329.803L329.447 167.482L344.859 143.031H350.674L344.377 153.568L336.709 166.188H356.438ZM352.248 143.031V180H344.936V143.031H352.248ZM360.771 149.84V156.288H407.051V149.84H360.771ZM387.447 152.44L381.155 153.896C385.107 168.196 391.607 178.96 403.515 184.524C404.555 182.704 406.635 180 408.195 178.596C397.171 174.228 390.567 164.348 387.447 152.44ZM380.271 135.852C380.115 149.944 381.051 169.704 359.731 179.22C361.551 180.572 363.475 182.808 364.463 184.524C386.771 173.76 386.875 151.712 387.135 135.852H380.271ZM426.655 143.86H444.959V150.88H426.655V143.86ZM420.623 137.932V156.808H451.355V137.932H420.623ZM413.499 161.176V184.68H419.375V167.104H427.123V184.368H433.363V161.176H413.499ZM437.783 161.176V184.68H443.763V167.104H452.083V184.42H458.375V161.176H437.783ZM416.099 176.1V182.08H429.723V176.1H416.099ZM440.643 176.1V182.08H455.203V176.1H440.643ZM482.919 169.184V174.436H511.883V169.184H482.919ZM499.195 162.632V184.732H505.071V162.632H499.195ZM494.515 135.748C494.047 137.828 493.007 140.636 492.071 142.716L497.063 144.016C498.259 142.248 499.923 139.596 501.431 136.944L494.515 135.748ZM494.931 143.496V152.128C494.931 156.808 493.631 162.84 484.323 166.532C485.467 167.312 487.391 168.976 488.275 169.964C498.519 165.752 500.183 158.368 500.183 152.284V143.496H494.931ZM468.931 149.528V154.832H483.751V149.528H468.931ZM475.015 135.904V152.7H480.423V135.904H475.015ZM469.243 160.812V166.064H476.003V184.732H481.515V160.812H469.243ZM466.331 137.204V156.652C466.331 163.932 465.915 175.424 463.003 182.964C464.511 183.38 467.007 184.212 468.203 184.836C471.115 176.724 471.687 164.816 471.687 156.652V137.204H466.331ZM490.199 153.272H504.863V156.86H490.199V153.272ZM490.199 145.368H504.863V148.904H490.199V145.368ZM484.687 140.688V161.488H510.583V140.688H484.687Z" fill="#424242"/>
</svg>
